X:385
T:Knockando House
R:Strathspey
C:William Marshall
B:The Athole Collection
M:C|
L:1/8
K:D
F|D/D/D D>B A>F A<B|D/D/D D>B A>F E<F|D/D/D D<B A>Bd>e|
f>de<f F<d E:|
B|A>Fd>F A>Fd>F|AF/F/ d>F B/A/G/F/ E>F|A>Fd>F A>Bd>e|
f>d e<f F<d E>B|A>Fd>F A>Fd>F|AF/F/ d>F B/A/G/F/ E>F|A>Fd>F A>Bd>e|
f>d e<f F<d E||

